X: 245
T: Kerry Reel
%%VWML:Prestons1794-3056d-p104-0
F:http://www.vwml.org/record/Prestons1794/3056d/p104
Z: 2014 John Chambers <jc:trillian.mit.edu>
B: Preston "Twenty four Country Dances for the Year 1794" p.103 #1
F: http://www.vwml.org/browse/browse-collections-dance-tune-books/browse-prestons1794# 2014-8-10
M: C|
L: 1/8
K: A
|:\
e/e/e cA E>FEA | Bcde fgaf |\
ecBA EABA | EABc A/A/AA2 :|
|:\
eA (c/B/A) fgaf | eA (c/B/A) fBB2 |\
eA (c/B/A) fgaf | ecdB A/A/AA2 :|
|:\
e>fea f>gfa | bBBc edcB |\
AAGF EDCB, | A,A Bc A/A/AA2 :|
% - - - - - - - - - - - - - - - - - - - - - - - - -
%%begintext align
%% Foot it & change sides .| Foot it & change sides
%% back again :| Lead down the middle up again :|.
%% Allemande :|: Swing Corners :||
%%endtext
% - - - - - - - - - - - - - - - - - - - - - - - - -
T: Durham Rant
%R: _
Z: 2014 John Chambers <jc:trillian.mit.edu>
B: Preston "Twenty four Country Dances for the Year 1794" p.103 #2
F: http://www.vwml.org/browse/browse-collections-dance-tune-books/browse-prestons1794# 2014-8-10
M: 3/4
L: 1/16
K: G
|:\
B2G2 G2D2 {D}C2B,2 | A,2A2 A2E2 FGAF |\
B2G2 G2D2 {D}C2B,2 | A,2G2 G2D2 EFGA :|
|:\
G2g2 d2cB cBAG | FGAB A2E2 FGAF |\
G2g2 d2cB cdef | g2G2 G2D2 EFGA :|
% - - - - - - - - - - - - - - - - - - - - - - - - -
%%begintext align
%% Cast off 2 Cu. .| Lead up to the
%% top & cast off :| Hands 4 at bottom
%% :|. Right & left at top :|:
%%endtext
% - - - - - - - - - - - - - - - - - - - - - - - - -
